package/converter/svg/duotone/square-h.svg

<svg xmlns="http://www.w3.org/2000/svg" viewBox="0 0 448 512"><!-- Font Awesome Pro 6.0.0-alpha2 by @fontawesome - https://fontawesome.com License - https://fontawesome.com/license (Commercial License) --><defs><style>.fa-secondary{opacity:.4}</style></defs><path d="M384 32H64C28.654 32 0 60.654 0 96V416C0 451.346 28.654 480 64 480H384C419.346 480 448 451.346 448 416V96C448 60.654 419.346 32 384 32ZM336 360C336 373.25 325.25 384 312 384S288 373.25 288 360V280H160V360C160 373.25 149.25 384 136 384S112 373.25 112 360V152C112 138.75 122.75 128 136 128S160 138.75 160 152V232H288V152C288 138.75 298.75 128 312 128S336 138.75 336 152V360Z" class="fa-secondary"/><path d="M312 128C298.75 128 288 138.75 288 152V232H160V152C160 138.75 149.25 128 136 128S112 138.75 112 152V360C112 373.25 122.75 384 136 384S160 373.25 160 360V280H288V360C288 373.25 298.75 384 312 384S336 373.25 336 360V152C336 138.75 325.25 128 312 128Z" class="fa-primary"/></svg>

<svg xmlns="http://www.w3.org/2000/svg" viewBox="0 0 448 512"><!--! Font Awesome Pro 6.6.0 by @fontawesome - https://fontawesome.com License - https://fontawesome.com/license (Commercial License) Copyright 2024 Fonticons, Inc. --><defs><style>.fa-secondary{opacity:.4}</style></defs><path class="fa-secondary" d="M0 96L0 416c0 35.3 28.7 64 64 64l320 0c35.3 0 64-28.7 64-64l0-320c0-35.3-28.7-64-64-64L64 32C28.7 32 0 60.7 0 96zm112 56c0-13.3 10.7-24 24-24s24 10.7 24 24l0 80 128 0 0-80c0-13.3 10.7-24 24-24s24 10.7 24 24l0 104 0 104c0 13.3-10.7 24-24 24s-24-10.7-24-24l0-80-128 0 0 80c0 13.3-10.7 24-24 24s-24-10.7-24-24l0-208z"/><path class="fa-primary" d="M312 128c13.3 0 24 10.7 24 24l0 104 0 104c0 13.3-10.7 24-24 24s-24-10.7-24-24l0-80-128 0 0 80c0 13.3-10.7 24-24 24s-24-10.7-24-24l0-208c0-13.3 10.7-24 24-24s24 10.7 24 24l0 80 128 0 0-80c0-13.3 10.7-24 24-24z"/></svg>
